X: 1
T: Spel-Nisses Vals
R:
O:
B:
D:
Z: 1998 by John Chambers <jc:trillian.mit.edu>
N:
M: 3/4
L: 1/4
K: C
|: "C"CEF | G>ED | "F"CFG | "Dm"A>FD | "G7"DGB | d>BG | GAB |1,3 "C"cG/F/E/D/ :|2,4 "C"c3 :|
|: "C"cec | "G7"d2c | "F"cBF | "C"A2G | GAE | "(F)"G2F | "G7"FED | "C"E>FG |
| "C"G/c/ e/c/ e/c/ | "G7"d2c | "F"cBF | "C"A2G | GAE | "(F)"G2F | "G7"FED | "C"C3 :|
